dist/img/product/sign.svg

<svg width="80" height="80" viewBox="0 0 80 80" fill="none" xmlns="http://www.w3.org/2000/svg">
<rect width="80" height="80" rx="5" fill="#D1327F"/>
<path d="M66.6667 29.625C68.6667 29.625 70 28.375 70 26.5C70 24.625 68.6667 23.375 66.6667 23.375H16.6667V17.125C16.6667 15.25 15.3333 14 13.3333 14C11.3333 14 10 15.25 10 17.125V35.875C10 37.75 11.3333 39 13.3333 39C15.3333 39 16.6667 37.75 16.6667 35.875V29.625H30V32.75C24.3333 32.75 20 36.8125 20 42.125V54.625C20 59.9375 24.3333 64 30 64H60C65.6667 64 70 59.9375 70 54.625V42.125C70 36.8125 65.6667 32.75 60 32.75V29.625H66.6667ZM36.6667 29.625H53.3333V32.75H36.6667V29.625ZM63.3333 42.125V54.625C63.3333 56.5 62 57.75 60 57.75H30C28 57.75 26.6667 56.5 26.6667 54.625V42.125C26.6667 40.25 28 39 30 39H60C62 39 63.3333 40.25 63.3333 42.125Z" fill="#F1EDF3"/>
<path d="M43.3333 45.25H33.3333C31.3333 45.25 30 46.5 30 48.375C30 50.25 31.3333 51.5 33.3333 51.5H43.3333C45.3333 51.5 46.6667 50.25 46.6667 48.375C46.6667 46.5 45.3333 45.25 43.3333 45.25Z" fill="#F1EDF3"/>
</svg>

<svg width="80" height="80" fill="none" xmlns="http://www.w3.org/2000/svg"><rect width="80" height="80" rx="5" fill="#D1327F"/><path d="M66.667 29.625c2 0 3.333-1.25 3.333-3.125s-1.333-3.125-3.333-3.125h-50v-6.25c0-1.875-1.334-3.125-3.334-3.125S10 15.25 10 17.125v18.75C10 37.75 11.333 39 13.333 39s3.334-1.25 3.334-3.125v-6.25H30v3.125c-5.667 0-10 4.063-10 9.375v12.5C20 59.938 24.333 64 30 64h30c5.667 0 10-4.063 10-9.375v-12.5c0-5.313-4.333-9.375-10-9.375v-3.125h6.667Zm-30 0h16.666v3.125H36.667v-3.125Zm26.666 12.5v12.5C63.333 56.5 62 57.75 60 57.75H30c-2 0-3.333-1.25-3.333-3.125v-12.5C26.667 40.25 28 39 30 39h30c2 0 3.333 1.25 3.333 3.125Z" fill="#F1EDF3"/><path d="M43.333 45.25h-10c-2 0-3.333 1.25-3.333 3.125s1.333 3.125 3.333 3.125h10c2 0 3.334-1.25 3.334-3.125s-1.334-3.125-3.334-3.125Z" fill="#F1EDF3"/></svg>
